X:1
T:Title
%%score { ( 1 3 4 ) | ( 2 5 ) }
L:1/8
M:3/4
K:Bb
V:1 treble nm="Grand Piano"
V:3 treble 
V:4 treble 
V:2 bass 
V:5 bass 
V:1
 z2 z2 z[Q:1/4=100] [Fd] | [Ec]>[DB] [DB]3 [Dc] | [EB]>[EA] [EA]3 [Ge] | d>c c3 d | %4
[M:5/8] [Ec]>[DB] [DB]3 |[M:1/8] f |[M:3/4] e>d d3 e | [Fd]>[Ec] [Ec]3 [Ed] | %8
 [=Ec]>[EB] [EB]3 [Ec] |[M:2/4] B>A A2 |[M:4/4][K:bass] z4[K:treble] e2 z2 | [EAe]2 z2 d2 d2 | %12
 F,2 z2[K:treble] e2 e2 | e2 z2 d2 d2 | z4 d2 z2 | [^Fcd]2 z2 c2 B2 | z4 c2 z2 | c2 [Acg]2 F2 F2 | %18
 f2 z2 z f [Geg]>[Gg] | z2 [Gdg]4 z2 | [df]2 [Fef]2 [Aea]2 [cec']2 | z2 [dfd']6 | %22
 F2 [FBf]2- [FBf][FAe][FBd][Ac] | [GB][^FA] z2 =F2 [EG]2 | %24
 [^Fe]2 d=F Gd [EAc]2-[Q:1/4=97][Q:1/4=94][Q:1/4=91][Q:1/4=88][Q:1/4=84][Q:1/4=81][Q:1/4=78] | %25
[M:7/8] [EAc][DFB][DFB]- [DFB]- [DFB]3- | [DFB] z z z z z2 |] %27
V:2
 z2 z2 z [B,,B,] | [B,,F,]>[B,,F,] [B,,F,]3 [B,,F,] | [C,F,]>[C,F,] [C,F,]3 [F,A,] | %3
 [F,A,F]>[F,A,E] [F,A,E]3 [F,A,F] |[M:5/8] [B,,B,]>[B,,F,] [B,,F,]3 |[M:1/8][K:treble] [B,DF] | %6
[M:3/4] [B,CF]>[B,F] [G,=B,F]3 [G,B,G] | [C,C]>[C,G,] [C,G,]3 [C,G,] | [C,G,]>[C,C] [C,C]3 [C,C] | %9
[M:2/4] [F,CF]>[F,CF] [F,CF]2 |[M:4/4] z4[K:treble] [EA]2 G,>G, | A,>A,[K:bass] z2 [DG]2 [F,DG]2 | %12
 z4[K:treble] [A,EA]2 [CEA]2 | [EA]2 z2 [FB]2 [FB]2 | z4 [^Fc]2 DC | B,A, z2 [DG]2 [B,DG]2 | %16
 z4[K:bass][K:treble] [=EB]2 [DEB]2 | [C=EB]2 [F,F]2 z4 | F2[K:bass] F,,2 z F [F,A,E]2 | %19
 [F,CE]2 z2 z4 | F2 F,,2 [F,CE]2 [F,A,E]2 | [F,A,E]2 B,,2 F,2 F,2 | %22
 F,2 [D,D]2- [D,D][C,C][B,,B,][F,E] | [G,D][D,C] [E,B,]2 [D,=B,]2 [C,C]2 | %24
 [C,B,]2 [F,B,F]F, G,D F,2- |[M:7/8] F,B,,B,,- B,,- B,,3- | B,, z z z z z2 |] %27
V:3
 x6 | x6 | x6 | x6 |[M:5/8] x5 |[M:1/8] x |[M:3/4] x6 | x6 | x6 |[M:2/4] x4 | %10
[M:4/4][K:bass] F,2 z2[K:treble] z F, [EAe]2 | z2 G,4 z2 | z2 F,4[K:treble] z2 | z2 D6 | %14
 D2 z2 z E [^Fcd]2 | z2 C4 z2 | G,2 z2 z _D c2 | x8 | z2 [Fef]4 z2 | [Aea]>a z2 [B,D]2 [Fdf]2 | %20
 x8 | [ege']2 z2 [B,D]2 [B,D]2 | x8 | z2 G4 z2 | x8 |[M:7/8] x7 | x7 |] %27
V:4
 x6 | x6 | x6 | x6 |[M:5/8] x5 |[M:1/8] x |[M:3/4] x6 | x6 | x6 |[M:2/4] x4 | %10
[M:4/4][K:bass] z2 F,4[K:treble] z2 | x8 | x4[K:treble] x4 | x8 | z2 D4 z2 | x8 | z2 C4 z2 | x8 | %18
 z4 [A,E]2 z2 | x8 | x8 | x8 | x8 | x8 | x8 |[M:7/8] x7 | x7 |] %27
V:5
 x6 | x6 | x6 | x6 |[M:5/8] x5 |[M:1/8][K:treble] x |[M:3/4] x6 | x6 | x6 |[M:2/4] x4 | %10
[M:4/4] z2 F,,4[K:treble] z2 | z2[K:bass] B,,4 z2 | x4[K:treble] x4 | z2 B,6 | z2 D,4 z2 | %15
 z2 G,4 z2 | z2[K:bass] C,4[K:treble] z2 | x8 | z4[K:bass] F,2 z2 | z z/ A/ B,,2 F,2 [F,B,D]2 | %20
 x8 | x8 | x8 | x8 | x8 |[M:7/8] x7 | x7 |] %27

